modules/hawcons-stroke/icons/icon-31-sunset.svg

<?xml version="1.0" encoding="UTF-8" standalone="no"?>
<svg width="32px" height="32px" viewBox="0 0 32 32" version="1.1" xmlns="http://www.w3.org/2000/svg" xmlns:xlink="http://www.w3.org/1999/xlink" xmlns:sketch="http://www.bohemiancoding.com/sketch/ns">
    <!-- Generator: Sketch 3.0.3 (7891) - http://www.bohemiancoding.com/sketch -->
    <title>icon 31 sunset</title>
    <desc>Created with Sketch.</desc>
    <defs></defs>
    <g id="Page-1" stroke="none" stroke-width="1" fill="none" fill-rule="evenodd" sketch:type="MSPage">
        <g id="icon-31-sunset" sketch:type="MSArtboardGroup" fill="#929292">
            <path d="M22.0066312,18 C22.0214714,17.835319 22.0290527,17.6685448 22.0290527,17.5 C22.0290527,14.4624337 19.566619,12 16.5290527,12 C13.4914865,12 11.0290527,14.4624337 11.0290527,17.5 C11.0290527,17.6685448 11.036634,17.835319 11.0514742,18 L12.0565171,18 C12.0383694,17.8358331 12.0290527,17.6690045 12.0290527,17.5 C12.0290527,15.0147185 14.0437712,13 16.5290527,13 C19.0143342,13 21.0290527,15.0147185 21.0290527,17.5 C21.0290527,17.6690045 21.0197361,17.8358331 21.0015883,18 L22.0066312,18 L22.0066312,18 L22.0066312,18 Z M16.5290527,8 C16.2529104,8 16.0290527,8.2157526 16.0290527,8.49538898 L16.0290527,10.504611 C16.0290527,10.7782068 16.2609863,11 16.5290527,11 C16.8051951,11 17.0290527,10.7842474 17.0290527,10.504611 L17.0290527,8.49538898 C17.0290527,8.2217932 16.7971191,8 16.5290527,8 L16.5290527,8 L16.5290527,8 Z M23.2671105,10.7909949 C23.0718484,10.5957328 22.760997,10.5900017 22.5632642,10.7877344 L21.1425297,12.208469 C20.9490683,12.4019304 20.9562386,12.7227637 21.1457902,12.9123153 C21.3410523,13.1075774 21.6519037,13.1133085 21.8496365,12.9155758 L23.270371,11.4948412 C23.4638325,11.3013798 23.4566621,10.9805465 23.2671105,10.7909949 L23.2671105,10.7909949 L23.2671105,10.7909949 Z M26.0581055,17.5290527 C26.0581055,17.2529104 25.8423529,17.0290527 25.5627165,17.0290527 L23.5534945,17.0290527 C23.2798987,17.0290527 23.0581055,17.2609863 23.0581055,17.5290527 C23.0581055,17.8051951 23.2738581,18.0290527 23.5534945,18.0290527 L25.5627165,18.0290527 C25.8363123,18.0290527 26.0581055,17.7971191 26.0581055,17.5290527 L26.0581055,17.5290527 L26.0581055,17.5290527 Z M7,17.5290527 C7,17.8051951 7.2157526,18.0290527 7.49538898,18.0290527 L9.50461102,18.0290527 C9.7782068,18.0290527 10,17.7971191 10,17.5290527 C10,17.2529104 9.7842474,17.0290527 9.50461102,17.0290527 L7.49538898,17.0290527 C7.2217932,17.0290527 7,17.2609863 7,17.5290527 L7,17.5290527 L7,17.5290527 Z M9.79099493,10.7909949 C9.59573278,10.9862571 9.59000166,11.2971084 9.78773445,11.4948412 L11.208469,12.9155758 C11.4019304,13.1090372 11.7227637,13.1018668 11.9123153,12.9123153 C12.1075774,12.7170531 12.1133085,12.4062018 11.9155758,12.208469 L10.4948412,10.7877344 C10.3013798,10.594273 9.9805465,10.6014434 9.79099493,10.7909949 L9.79099493,10.7909949 L9.79099493,10.7909949 Z M7.53725684,21 C7.25658346,21 7.02905273,20.7680664 7.02905273,20.5 C7.02905273,20.2238576 7.25566788,20 7.53725684,20 L13.6123861,20 L14.7790527,21 L16.5290527,22.5 L18.2790527,21 L19.4457194,20 L25.5208486,20 C25.801522,20 26.0290527,20.2319336 26.0290527,20.5 C26.0290527,20.7761424 25.8024376,21 25.5208486,21 L20.0290527,21 L16.5290527,24 L13.0290527,21 L7.53725684,21 L7.53725684,21 Z" id="sunset" sketch:type="MSShapeGroup"></path>
        </g>
    </g>
</svg>

<svg width="32" height="32" xmlns="http://www.w3.org/2000/svg"><path d="M22.007 18a5.5 5.5 0 1 0-10.955 0h1.005a4.5 4.5 0 1 1 8.945 0h1.005zM16.529 8c-.276 0-.5.216-.5.495v2.01c0 .273.232.495.5.495.276 0 .5-.216.5-.495v-2.01a.503.503 0 0 0-.5-.495zm6.738 2.791a.494.494 0 0 0-.704-.003l-1.42 1.42a.503.503 0 0 0 .003.704.494.494 0 0 0 .704.004l1.42-1.421a.503.503 0 0 0-.003-.704zm2.791 6.738c0-.276-.216-.5-.495-.5h-2.01a.503.503 0 0 0-.495.5c0 .276.216.5.495.5h2.01a.503.503 0 0 0 .495-.5zM7 17.53c0 .276.216.5.495.5h2.01a.503.503 0 0 0 .495-.5c0-.276-.216-.5-.495-.5h-2.01a.503.503 0 0 0-.495.5zm2.791-6.738a.494.494 0 0 0-.003.704l1.42 1.42a.503.503 0 0 0 .704-.003.494.494 0 0 0 .004-.704l-1.421-1.42a.503.503 0 0 0-.704.003zM7.537 21a.51.51 0 0 1-.508-.5c0-.276.227-.5.508-.5h6.075l1.167 1 1.75 1.5 1.75-1.5 1.167-1h6.075a.51.51 0 0 1 .508.5c0 .276-.227.5-.508.5h-5.492l-3.5 3-3.5-3H7.537z" fill="#929292" fill-rule="evenodd"/></svg>
